!!!SOCIAL_FUNCTION:	deer dance songs
!!!PDT:	1932
!!!OTL: No_79_Song_of_the_Nighthawk_(a).krn
!!!REG: Southwest
!!!LANG: Non-Tone
!!!LING_GROUP: Yuman-Cochimi
**kern	**kern
*staff2	*staff1
=1-	=1-
*clefF4	*clefF4
*k[f#c#]	*k[f#c#]
*M3/4	*M3/4
2.r	2r
.	4E\
=2	=2
2.r	4B\
.	8F#\L
.	8B\J
.	4B\
=3	=3
2.r	4G\
.	8E\L
.	8G\J
.	4F#\
=4||	=4||
*M2/4	*M2/4
2r	4E\
.	8BB/L
.	8E/J
=5	=5
2r	4E\
.	8E\L
.	8E\J
=6	=6
2r	4E\
.	4r
=7	=7
2r	4r
.	4F#\
=8	=8
*M3/4	*M3/4
2.r	4G\
.	8F#\L
.	8G\J
.	4G\
=9	=9
2.r	4F#\
.	8E\L
.	8G\J
.	4F#\
=10	=10
2.r	4E\
.	8r
.	8BB/
.	4F#\
=11	=11
=	=
2.r	4G\
.	8F#\L
.	8A\J
.	8G\
.	8r
=12	=12
2.r	4G\
.	8E\L
.	8G\J
.	8F#\
.	8r
=13||	=13||
*M2/4	*M2/4
2r	4E\
.	8r
.	8E\
=14	=14
2r	4E\
.	4E\
=15||	=15||
*M3/4	*M3/4
2.r	4E\
.	4r
.	8r
.	16r
.	16BB/
=16	=16
2.r	8.C#/L
.	16BB/Jk
.	8.C#/L
.	16BB/Jk
.	8.C#/L
.	16BB/Jk
=17	=17
2.r	4E\
.	4E\
.	8r
.	16r
.	16BB/
=18	=18
2.r	8.C#/L
.	16BB/Jk
.	8.C#/L
.	16BB/Jk
.	8.C#/L
.	16F#/Jk
=19	=19
2.r	4E\
.	4E\
.	8r
.	16r
.	16E\
=20||	=20||
*M2/4	*M2/4
2r	4E\
.	4E\
=21||	=21||
*M3/4	*M3/4
2.r	4E\
.	8r
.	8BB/
.	4F#\
=22:|!	=22:|!
*M2/4	*M2/4
2r	4E\
.	4r
==	==
*-	*-
